communes/1121.svg

<?xml version="1.0" encoding="UTF-8"?>
<svg width="520" height="585" version="1.1" viewBox="0 0 100 112.5" xmlns="http://www.w3.org/2000/svg" xmlns:cc="http://creativecommons.org/ns#" xmlns:dc="http://purl.org/dc/elements/1.1/" xmlns:rdf="http://www.w3.org/1999/02/22-rdf-syntax-ns#" xmlns:xlink="http://www.w3.org/1999/xlink">
<metadata>
<rdf:RDF>
<cc:Work rdf:about="">
<dc:format>image/svg+xml</dc:format>
<dc:type rdf:resource="http://purl.org/dc/dcmitype/StillImage"/>
</cc:Work>
</rdf:RDF>
</metadata>
<title>Wappen von Alberswil</title>
<desc>Wappen der Schweizer Gemeinde Alberswil, Kanton Luzern</desc>
<g fill="#e2001a" stroke="#000">
<path d="m1 1v61.5a49 49 0 0 0 98 0v-61.5z" fill="#ffd400" stroke-width="2"/>
<path d="m2.871 74a48.5 48.5 0 0 0 6.5 15h81.258a48.5 48.5 0 0 0 6.5-15zm1.129 5h92m-90 5h88m-86-10v5m12 0v-5m12 0v5m12 0v-5m12 0v5m12 0v-5m12 0v5m12 0v-5m-78 5v5m12 0v-5m12 0v5m12 0v-5m12 0v5m12 0v-5m12 0v5m-66 0v5m12 0v-5m12 0v5m12 0v-5m12 0v5m12 0v-5m-63-10v-38l33-30 33 30v38z"/>
<path d="m14 30.5h4.5v3h9v-3h9v3h9v-3h9v3h9v-3h9v3h9v-3h4.5v9.5h-72zm36-24.5v68m5.5-34v28.4m11 0v-28.4m11 0v28.4"/>
<path d="m50 45.6h33v5.7h-33v5.7h11v5.7-5.7h11v5.7-5.7h11v5.7h-33zm0 22.8h11v5.7-5.7h11v5.7-5.7h11"/>
<path id="a" d="m26 57h15v2h-15zm2 0v-8a2.75 2 0 0 1 5.5 0 2.75 2 0 0 1 5.5 0m-9 8v-8a1.75 1.65 0 0 1 3.5 0v8h2v-8a1.75 1.65 0 0 1 3.5 0v8"/>
<use transform="matrix(-1,0,0,1,100,0)" xlink:href="#a"/>
</g>
</svg>

<?xml version="1.0" encoding="UTF-8" standalone="no"?>
<svg
   xmlns:dc="http://purl.org/dc/elements/1.1/"
   xmlns:cc="http://creativecommons.org/ns#"
   xmlns:rdf="http://www.w3.org/1999/02/22-rdf-syntax-ns#"
   xmlns:svg="http://www.w3.org/2000/svg"
   xmlns="http://www.w3.org/2000/svg"
   xmlns:xlink="http://www.w3.org/1999/xlink"
   xmlns:sodipodi="http://sodipodi.sourceforge.net/DTD/sodipodi-0.dtd"
   xmlns:inkscape="http://www.inkscape.org/namespaces/inkscape"
   version="1.1"
   width="520"
   height="585"
   viewBox="0,0 100,112.5"
   id="svg19"
   sodipodi:docname="1121.svg">
  <metadata
     id="metadata25">
    <rdf:RDF>
      <cc:Work
         rdf:about="">
        <dc:format>image/svg+xml</dc:format>
        <dc:type
           rdf:resource="http://purl.org/dc/dcmitype/StillImage" />
      </cc:Work>
    </rdf:RDF>
  </metadata>
  <defs
     id="defs23" />
  <sodipodi:namedview
     pagecolor="#ffffff"
     bordercolor="#666666"
     borderopacity="1"
     objecttolerance="10"
     gridtolerance="10"
     guidetolerance="10"
     inkscape:pageopacity="0"
     inkscape:pageshadow="2"
     inkscape:window-width="640"
     inkscape:window-height="480"
     id="namedview21" />
  <title
     id="title2">Wappen von Alberswil</title>
  <desc
     id="desc4">Wappen der Schweizer Gemeinde Alberswil, Kanton Luzern</desc>
  <g
     stroke="black"
     stroke-width="1"
     fill="#e2001a"
     id="g17">
    <path
       d="M 1,1 V 62.5 a 49,49 0 0,0 98,0 V 1 z"
       stroke-width="2"
       fill="#ffd400"
       id="path6" />
    <path
       d="M 2.871,74 A 48.5,48.5 0 0,0 9.371,89 h 81.258,0 A 48.5,48.5 0 0,0 97.129,74 z M 4,79 H 96 M 6,84 H 94 M 8,74 v 5 m 12,0 v -5 m 12,0 v 5 m 12,0 v -5 m 12,0 v 5 m 12,0 v -5 m 12,0 v 5 m 12,0 v -5 M 14,79 v 5 m 12,0 v -5 m 12,0 v 5 m 12,0 v -5 m 12,0 v 5 m 12,0 v -5 m 12,0 v 5 M 20,84 v 5 m 12,0 v -5 m 12,0 v 5 m 12,0 v -5 m 12,0 v 5 m 12,0 v -5 M 17,74 L 17,36 50,6 83,36 83,74 z"
       id="path8" />
    <path
       d="M 14,30.5 h 4.5 v 3 h 9 v -3 h 9 v 3 h 9 v -3 h 9 v 3 h 9 v -3 h 9 v 3 h 9 v -3 h 4.5 v 9.5 H 14 z M 50,6 V 74 M 55.5,40 V 68.4 m 11,0 V 40 m 11,0 V 68.4"
       id="path10" />
    <path
       d="M 50,45.6 H 83 v 5.7 H 50 v 5.7 h 11 v 5.7 -5.7 h 11 v 5.7 -5.7 H 83 v 5.7 H 50 z M 50,68.4 h 11 v 5.7 -5.7 h 11 v 5.7 -5.7 H 83"
       id="path12" />
    <path
       id="fenster"
       d="M 26,57 H 41 v 2 H 26 z M 28,57 V 49 a 2.75,2 0 0,1 5.5,0 2.75,2 0 0,1 5.5,0 M 30,57 V 49 a 1.75,1.65 0 0,1 3.5,0 v 8 h 2 V 49 a 1.75,1.65 0 0,1 3.5,0 v 8" />
    <use
       xlink:href="#fenster"
       transform="matrix(-1,0,0,1,100,0)"
       id="use15" />
  </g>
</svg>
